!!!COM: Henri Duparc
!!!CNT: Francais
!!!TXO: Francais
!!!OTL: Chanson Triste
!!!LYR: Jean Lahor (or Henri Cazalis?)
!!!ENC: Jacob Pegg
!!!YOR: Henri Duparc: Complete Songs for Voice and Piano
!!!YOR: New York: Dover publications, inc., 1995 
!!!YOR: ISBN 0-486-*28466-2
!!!ODT: 1868/
!!NB: Vocal melody and text only encoded.
!!NB: First instance of melodic material only encoded.
**kern	**silbe
*clef G2	*
*k[b-e-a-]	*
*M12/8	*
*MM[lento]	*
!!created: 6/21/03 20:43
!!proofed and posted: 7/17/03 23:13
=2	=2
{4b-	{Dans
8f	ton
4.f	coeur
4f	dort
8f	un
4g	clair
8a-	de
=3	=3
4.b-	lu-
4b-}	-ne,}
8r	.
{4.ee-	{un
4.cc	doux
=4	=4
4b-	clair
8b-	de
2.b-	lu-
4b-	-ne
8b-	d'e/-
=5	=5
[2.b-	-te/,
8b-]}	|}
8r	.
8r	.
4r	.
8r	.
=6	=6
4r	.
8r	.
{4b-	{Et
8b-	pour
[4.cc	fuir
4cc]	|
8cc	la
=7	=7
4.dd	vie
4dd	im-
8dd	-por-
4.ff	-tu-
4ff}	-ne}
8r	.
=8	=8
{4.gg	{Je
4ee-	me
8b-	noie-
[4.f	-rai
4f]}	|}
8r	.
=9	=9
{4.f	{dans
4g	ta
8a-	clar-
[4.b-	-te/.
4b-]}	|}
8r	.
=10	=10
1.r	.
=11	=11
2r	.
2r	.
4r	.
4r	.
=12	=12
{4dd	{J'ou-
8g	-blie-
4.g	-rai
4ee-	les
8ee-	dou-
4dd	-leurs
8cc	pas-
=13	=13
4.b-	-se/-
4b-}	-es,}
8r	.
{4aa-	{Mon
8ee-	a-
4cc}	-mour,}
8r	.
=14	=14
{4b-	{Quand
8b-	tu
4b-	ber-
8b-	-ce-
4b-	-ras
8f	mon
4g	tris-
8a-	-te
=15	=15
4b-	coeur
8b-	et
4b-	mes
8b-	pen-
4.bn	-se/-
4bn}	-es}
8r	.
=16	=16
{4.ff#	{Dans
4.ff#	le
4cc#	calme
8cc#	ai-
[4.cc#	-mant
=17	=17
4.cc#]	|
4a#	de
8f#	tes
[2.c#	bras!
=18	=18
8c#]}	|}
8r	.
8r	.
4r	.
8r	.
2.r	.
=19	=19
1.r	.
=20	=20
{4ffn	{Tu
8b-	pren-
4b-	-dras
8b-	ma
4.cc-	te^-
4dd-	-te
8ee-	ma-
=21	=21
4.dd-	-la-
4dd-}	-de}
8r	.
{4.aan	{Oh!
4een	quel-
8cc#	-que-
=22	=22
4.bn	-fois
8bn	sur
8cc#	tes
8dd	ge-
[4.cc#	-noux
4cc#]}	|}
8r	.
=23	=23
{4.dd	{Et
4een	lui
8dd	di-
4.cc#	-ras
8bn	u-
8an	-ne
8g#	bal-
=24	=24
4.bn	-la-
4bn}	-de,}
8r	.
4r	.
8r	.
4r	.
8r	.
=25	=25
4r	.
8r	.
4r	.
8r	.
{4.cc-	{u-
4cc-	-ne
8cc-	bal-
=26	=26
4.b-	-la-
4b-}	-de,}
4r	.
8r	.
{8b-	{Qui
4ccn	sem-
8ccn	-ble-
=27	=27
4.f	-ra
8f	par-
8g	-ler
8a-	de
[4.b-	nous,
4b-]}	|}
8r	.
=28	=28
{4.cc	{Et
4b-	dans
8b-	tes
2.b-	yeux
=29	=29
4.cc	pleins
4b-	de
8b-	tris-
4.b-	-tes-
4b-}	-ses,}
8r	.
=30	=30
{4ee-	{Dans
8ee-	tes
4ee-	yeux
8g	a-
4.g	-lors
4cc-	je
8cc-	boi-
=31	=31
4.b-	-rai
2.aa-	Tant
4ee-	de
8ccn	bai-
=32	=32
4b-	-sers
8b-	et
4cc	de
8cc	ten-
4.ff	-dres-
4ff}	-ses}
8r	.
=33	=33
{4gg	{Que
8ee-	peut~
4b-	~e^-
8b-}	-tre}
8r	.
{4f	{Je
4g	gue/-
8a-	-ri-
=34	=34
[4.b-	-rai...
4b-]}	|}
8r	.
4r	.
8r	.
4r	.
8r	.
*-	*-
